X:51
T:Quick March for the Foot Guards ThFife.51
B:Thompson, C. & Thompson, S., 'The Compleat Tutor for the Fife', London, c.1765-1780.
S:Digitised by National Library of Scotland at: https://archive.org/details/nlsmusic
Z:vmp Roger Hare, 2019.
M:6/8
L:1/8
Q:3/8=100
K:D
|: ded A2 f | g2 f e2 d | ded A2 A | B3 d3 :|
|: d2 f a2 f | g2 f e2 d | d2 f a2 g | f3 a2 a |
b2 g e2 f/g/ | a2 e d2 d | def A2 A | B3 d3 :|

